symbolic/64x64/apps/ind.ie.Gnomit.svg

<svg xmlns="http://www.w3.org/2000/svg" width="64" height="64" version="1">
 <rect style="fill:#f1502f" width="4.091" height="27.273" x="45.41" y="-4.64" transform="rotate(45)"/>
 <rect style="fill:#f1502f" width="4" height="27" x="24" y="-41" transform="rotate(90)"/>
 <path style="opacity:0.2" d="M 41.5,8 A 20.5,20.5 0 0 0 21,28.5 20.5,20.5 0 0 0 41.5,49 20.5,20.5 0 0 0 62,28.5 20.5,20.5 0 0 0 41.5,8 Z M 10,19 c -4.4152613,0 -8,3.584568 -8,8 0,4.415262 3.5847387,8 8,8 4.415434,0 8,-3.584738 8,-8 0,-4.415432 -3.584566,-8 -8,-8 z m 8,23 c -4.415261,0 -8,3.584568 -8,8 0,4.415262 3.584739,8 8,8 4.415434,0 8,-3.584738 8,-8 0,-4.415432 -3.584566,-8 -8,-8 z"/>
 <path style="fill:#f1502f" d="M 17.999913,57 C 13.584652,57 9.9999125,53.415261 9.9999125,48.999999 9.9999125,44.584567 13.584652,41 17.999913,41 c 4.415434,0 7.999999,3.584567 7.999999,7.999999 C 25.999912,53.415261 22.415347,57 17.999913,57 Z"/>
 <path style="fill:#f1502f" d="M 10,34 C 5.5847387,34 1.9999995,30.415261 1.9999995,25.999999 1.9999995,21.584567 5.5847387,18 10,18 c 4.415434,0 7.999999,3.584567 7.999999,7.999999 C 17.999999,30.415261 14.415434,34 10,34 Z"/>
 <circle style="fill:#f1502f" cx="41.5" cy="27.5" r="20.5"/>
 <path style="opacity:0.2" d="M 41.5,13 C 32.94538,13 26,19.945383 26,28.5 26,37.054619 32.94538,44 41.5,44 50.054617,44 57,37.054619 57,28.5 57,19.945383 50.054617,13 41.5,13 Z m 4.890625,7 c 0.275063,0 0.548145,0.10673 0.761719,0.320312 l 2.527344,2.527344 c 0.427143,0.42716 0.427145,1.100187 0,1.527344 L 47.556641,26.482422 43.517578,22.443359 45.625,20.320312 C 45.838573,20.106732 46.115562,20 46.390625,20 Z M 10,23 c -2.2078124,0 -4,1.792364 -4,4 0,2.207636 1.7921876,4 4,4 2.207638,0 4,-1.792364 4,-4 0,-2.207636 -1.792362,-4 -4,-4 z m 32.748047,0.212891 4.037109,4.039062 L 37.039062,37 H 33 V 32.960938 Z M 18,46 c -2.207812,0 -4,1.792364 -4,4 0,2.207636 1.792188,4 4,4 2.207638,0 4,-1.792364 4,-4 0,-2.207636 -1.792362,-4 -4,-4 z"/>
 <path style="fill:#ffffff" d="m 18,53 c -2.207812,0 -4.000087,-1.792451 -4.000087,-4.000087 0,-2.207636 1.792275,-3.999914 4.000087,-3.999914 2.207638,0 3.999913,1.792278 3.999913,3.999914 C 21.999913,51.207549 20.207638,53 18,53 Z"/>
 <path style="fill:#ffffff" d="M 10.000087,30 C 7.7922746,30 6,28.207549 6,25.999913 6,23.792277 7.7922746,21.999999 10.000087,21.999999 12.207725,21.999999 14,23.792277 14,25.999913 14,28.207549 12.207725,30 10.000087,30 Z"/>
 <path style="fill:#ffffff" d="M 41.5 12 C 32.94538 12 26 18.945383 26 27.5 C 26 36.054619 32.94538 43 41.5 43 C 50.054617 43 57 36.054619 57 27.5 C 57 18.945383 50.054617 12 41.5 12 z M 46.390625 19 C 46.665688 19 46.93877 19.106729 47.152344 19.320312 L 49.679688 21.847656 C 50.106832 22.274816 50.106833 22.947843 49.679688 23.375 L 47.556641 25.482422 L 43.517578 21.443359 L 45.625 19.320312 C 45.838573 19.106732 46.115562 19 46.390625 19 z M 42.748047 22.212891 L 46.785156 26.251953 L 37.039062 36 L 33 36 L 33 31.960938 L 42.748047 22.212891 z"/>
 <path style="fill:#ffffff;opacity:0.2" d="M 41.5 7 A 20.5 20.5 0 0 0 21 27.5 A 20.5 20.5 0 0 0 21.021484 27.914062 A 20.5 20.5 0 0 1 41.5 8 A 20.5 20.5 0 0 1 61.978516 28.085938 A 20.5 20.5 0 0 0 62 27.5 A 20.5 20.5 0 0 0 41.5 7 z M 10 18 C 5.5847387 18 2 21.584568 2 26 C 2 26.168607 2.0150889 26.333968 2.0253906 26.5 C 2.2848563 22.318078 5.7533461 19 10 19 C 14.24682 19 17.715156 22.318078 17.974609 26.5 C 17.984911 26.333968 18 26.168607 18 26 C 18 21.584568 14.415434 18 10 18 z M 18 41 C 13.584739 41 10 44.584568 10 49 C 10 49.168607 10.015089 49.333968 10.025391 49.5 C 10.284856 45.318078 13.753346 42 18 42 C 22.24682 42 25.715156 45.318078 25.974609 49.5 C 25.984911 49.333968 26 49.168607 26 49 C 26 44.584568 22.415434 41 18 41 z"/>
</svg>

<svg xmlns="http://www.w3.org/2000/svg" width="64" height="64" version="1"><path style="fill:#f1502f" transform="rotate(45)" d="M45.41-4.64h4.091v27.273H45.41z"/><path style="fill:#f1502f" transform="rotate(90)" d="M24-41h4v27h-4z"/><path style="opacity:.2" d="M41.5 8A20.5 20.5 0 0 0 21 28.5 20.5 20.5 0 0 0 41.5 49 20.5 20.5 0 0 0 62 28.5 20.5 20.5 0 0 0 41.5 8zM10 19c-4.415 0-8 3.585-8 8s3.585 8 8 8 8-3.585 8-8-3.585-8-8-8zm8 23c-4.415 0-8 3.585-8 8s3.585 8 8 8 8-3.585 8-8-3.585-8-8-8z"/><path style="fill:#f1502f" d="M18 57c-4.415 0-8-3.585-8-8s3.585-8 8-8 8 3.585 8 8-3.585 8-8 8zM10 34c-4.415 0-8-3.585-8-8s3.585-8 8-8 8 3.585 8 8-3.585 8-8 8z"/><circle style="fill:#f1502f" cx="41.5" cy="27.5" r="20.5"/><path style="opacity:.2" d="M41.5 13C32.945 13 26 19.945 26 28.5S32.945 44 41.5 44 57 37.055 57 28.5 50.055 13 41.5 13zm4.89 7c.276 0 .549.107.762.32l2.528 2.528a1.07 1.07 0 0 1 0 1.527l-2.123 2.107-4.04-4.039 2.108-2.123c.214-.213.49-.32.766-.32zM10 23c-2.208 0-4 1.792-4 4s1.792 4 4 4 4-1.792 4-4-1.792-4-4-4zm32.748.213 4.037 4.039L37.04 37H33v-4.04zM18 46c-2.208 0-4 1.792-4 4s1.792 4 4 4 4-1.792 4-4-1.792-4-4-4z"/><path style="fill:#fff" d="M18 53c-2.208 0-4-1.792-4-4s1.792-4 4-4 4 1.792 4 4-1.792 4-4 4zM10 30c-2.208 0-4-1.792-4-4s1.792-4 4-4 4 1.792 4 4-1.792 4-4 4zM41.5 12C32.945 12 26 18.945 26 27.5S32.945 43 41.5 43 57 36.055 57 27.5 50.055 12 41.5 12zm4.89 7c.276 0 .549.107.762.32l2.528 2.528a1.07 1.07 0 0 1 0 1.527l-2.123 2.107-4.04-4.039 2.108-2.123c.214-.213.49-.32.766-.32zm-3.642 3.213 4.037 4.039L37.04 36H33v-4.04l9.748-9.747z"/><path style="fill:#fff;opacity:.2" d="M41.5 7A20.5 20.5 0 0 0 21 27.5a20.5 20.5 0 0 0 .021.414A20.5 20.5 0 0 1 41.5 8a20.5 20.5 0 0 1 20.479 20.086A20.5 20.5 0 0 0 62 27.5 20.5 20.5 0 0 0 41.5 7zM10 18c-4.415 0-8 3.585-8 8 0 .169.015.334.025.5C2.285 22.318 5.753 19 10 19s7.715 3.318 7.975 7.5c.01-.166.025-.331.025-.5 0-4.415-3.585-8-8-8zm8 23c-4.415 0-8 3.585-8 8 0 .169.015.334.025.5.26-4.182 3.728-7.5 7.975-7.5s7.715 3.318 7.975 7.5c.01-.166.025-.331.025-.5 0-4.415-3.585-8-8-8z"/></svg>
